client/components/gadget/close-active.svg

<svg width="20" height="22" viewBox="0 0 20 22" xmlns="http://www.w3.org/2000/svg"><title>close-active</title><g fill="none" fill-rule="evenodd"><path d="M0 0h20v22H0z"/><path fill="#FFF" d="M19 0h1v20h-1z"/><path d="M7 6h5v2H7V6zm0 2h1v8H7V8zm1 6h4v2H8v-2zm3-6h1v6h-1V8z" fill="#000"/><path fill="#AAA" d="M8 8h3v6H8z"/><path d="M0 0h19v2H0V0zm0 2h1v20H0V2z" fill="#000"/><path d="M18 2h1v20h-1V2zM1 20h17v2H1v-2z" fill="#FFF"/><path fill="#000" d="M19 20h1v2h-1z"/></g></svg>

<?xml version="1.0" encoding="UTF-8"?>
<svg width="20px" height="22px" viewBox="0 0 20 22" version="1.1" xmlns="http://www.w3.org/2000/svg" xmlns:xlink="http://www.w3.org/1999/xlink">
    <!-- Generator: Sketch 42 (36781) - http://www.bohemiancoding.com/sketch -->
    <title>close-active</title>
    <desc>Created with Sketch.</desc>
    <defs></defs>
    <g id="Page-1" stroke="none" stroke-width="1" fill="none" fill-rule="evenodd">
        <g id="Artboard" transform="translate(-1022.000000, -233.000000)">
            <g id="close-active" transform="translate(1022.000000, 233.000000)">
                <g stroke-width="1">
                    <g id="close">
                        <rect id="Rectangle-4" x="0" y="0" width="20" height="22"></rect>
                        <rect id="Rectangle-3" fill="#FFFFFF" x="19" y="0" width="1" height="20"></rect>
                        <path d="M7,6 L12,6 L12,8 L7,8 L7,6 Z M7,8 L8,8 L8,16 L7,16 L7,8 Z M8,14 L12,14 L12,16 L8,16 L8,14 Z M11,8 L12,8 L12,14 L11,14 L11,8 Z" id="Combined-Shape" fill="#000000"></path>
                    </g>
                    <rect id="Rectangle-78" fill="#AAAAAA" x="8" y="8" width="3" height="6"></rect>
                </g>
                <path d="M0,0 L19,0 L19,2 L0,2 L0,0 Z M0,2 L1,2 L1,22 L0,22 L0,2 Z" id="Combined-Shape" fill="#000000"></path>
                <path d="M18,2 L19,2 L19,22 L18,22 L18,2 Z M1,20 L18,20 L18,22 L1,22 L1,20 Z" id="Combined-Shape" fill="#FFFFFF"></path>
                <rect id="Rectangle-81" fill="#000000" x="19" y="20" width="1" height="2"></rect>
            </g>
        </g>
    </g>
</svg>
